X:113
T:Trip to the Camp. VWMLa.113
%%VWML:Anon2-3049-p64-0
F:http://www.vwml.org/record/Anon2/3049/p64
R:Jig
S:Anon. MS, late 18thC, Vaughan Williams Mem. Library
O:England;Yorkshire
Z:vmp/efdss.Simon Wilson. Reviewed PJH 2008.
M:6/8
L:1/8
Q:3/8=110
K:G
(B/c/)|(dB).G (e/f/g).e|(dB).G (A/B/c).A|\
(Bd).g (f/g/a).f|g3- g2:|
|:g/a/|bgb afa|geg fed|(e/f/g).f ed^c|dAF D2c/d/|
ece dBd|cAc BAG|(Bd).g (f/g/a).f|gdB G2:|
T:Dumfries House. VWMLa.114
R:Jig
S:Anon. MS, late 18thC, Vaughan Williams Mem. Library
O:England;Yorkshire
Z:vmp/efdss.Simon Wilson. Reviewed PJH 2008.
M:6/8
L:1/8
Q:3/8=120
K:Bb
c|BcB B2b|fdB Bcd|eBG GAB|cAF FGA|\
BcB B2b|fdB Bcd|ecd GBA|B3 B,2:|
|:f|fdf fdf|gab bag|fdf fdB|cAF F2f|\
fdf fdf|gab bag|fed cBA|B3 B,2:|
